src/static/logos/pipefy.svg

<?xml version="1.0" encoding="UTF-8" standalone="no"?>
<svg width="256px" height="140px" viewBox="0 0 256 140" version="1.1" xmlns="http://www.w3.org/2000/svg" xmlns:xlink="http://www.w3.org/1999/xlink" preserveAspectRatio="xMidYMid">
	<g>
		<path d="M151.704857,35.4559568 C142.510123,44.689985 137.449089,56.9574897 137.449089,70.0030103 C137.449089,83.0642485 142.510123,95.3317531 151.704857,104.557923 C160.899591,113.784092 173.127802,118.860843 186.126171,118.860843 C199.140256,118.860843 211.368467,113.784092 220.563202,104.557923 C229.757936,95.3317531 234.826828,83.0563897 234.826828,70.0030103 C234.826828,56.9574897 229.765795,44.6978437 220.57106,35.4559568 C211.368467,26.2297874 199.140256,21.1530366 186.126171,21.1530366 C173.127802,21.1530366 160.899591,26.2297874 151.704857,35.4559568 L151.704857,35.4559568 Z" fill="#029AFF"></path>
		<path d="M69.7606032,0 C31.2912347,0 0,31.4017987 0,70.0037697 C0,108.590662 31.2912347,140 69.7606032,140 L186.231857,140 C204.870877,140 222.393968,132.731973 235.566447,119.507782 C248.746466,106.29113 256,88.7091389 256,70.0037697 C256,51.30594 248.746466,33.7390274 235.566447,20.5148366 C222.386428,7.29818515 204.878417,0 186.231857,0 L69.7606032,0 L69.7606032,0 Z M153.198869,103.139641 C144.377003,94.2958695 139.521206,82.526792 139.521206,69.9962303 C139.521206,57.4807475 144.377003,45.7192094 153.198869,36.8528192 C162.020735,28.0015079 173.753063,23.1310248 186.224317,23.1310248 C198.71065,23.1310248 210.450518,28.0015079 219.272385,36.8528192 C228.094251,45.71167 232.950047,57.4807475 232.950047,69.9962303 C232.950047,82.5117131 228.086711,94.2958695 219.264844,103.147181 C210.442978,111.998492 198.69557,116.868975 186.216777,116.868975 C173.745523,116.868975 162.013195,111.998492 153.191329,103.147181 L153.198869,103.139641 Z M23.0424128,70.0113092 C23.0424128,44.1660833 44.00377,23.1310248 69.7606032,23.1310248 L134.552309,23.1310248 C110.590009,49.6924982 110.590009,90.3075018 134.552309,116.876515 L69.7606032,116.876515 C44.00377,116.876515 23.0424128,95.8414562 23.0424128,70.0037697 L23.0424128,70.0113092 Z" fill="#303030"></path>
	</g>
</svg>

<svg width="256" height="140" xmlns="http://www.w3.org/2000/svg" preserveAspectRatio="xMidYMid"><path d="M151.705 35.456c-9.195 9.234-14.256 21.501-14.256 34.547 0 13.061 5.061 25.329 14.256 34.555 9.195 9.226 21.423 14.303 34.421 14.303 13.014 0 25.242-5.077 34.437-14.303 9.195-9.226 14.264-21.502 14.264-34.555 0-13.046-5.061-25.305-14.256-34.547-9.203-9.226-21.43-14.303-34.445-14.303-12.998 0-25.226 5.077-34.421 14.303z" fill="#029AFF"/><path d="M69.76 0C31.292 0 0 31.402 0 70.004 0 108.59 31.291 140 69.76 140h116.472c18.639 0 36.162-7.268 49.334-20.492C248.746 106.29 256 88.709 256 70.004c0-18.698-7.254-36.265-20.434-49.49C222.386 7.299 204.878 0 186.232 0H69.76zm83.44 103.14c-8.822-8.844-13.678-20.613-13.678-33.144 0-12.515 4.856-24.277 13.678-33.143 8.822-8.851 20.554-13.722 33.025-13.722 12.487 0 24.227 4.87 33.048 13.722 8.822 8.859 13.678 20.628 13.678 33.143 0 12.516-4.863 24.3-13.685 33.151-8.822 8.851-20.57 13.722-33.048 13.722-12.471 0-24.204-4.87-33.026-13.722l.008-.007zM23.042 70.01c0-25.845 20.962-46.88 46.719-46.88h64.791c-23.962 26.561-23.962 67.177 0 93.746H69.761c-25.757 0-46.719-21.036-46.719-46.873v.007z" fill="#303030"/></svg>
